X: 29935
T: O'Sullivan's March
R: jig
M: 6/8
K: Gmajor
D|:GBA Agf|edB dBA|GBd def|gfe def|
g/a/bg age|dBG AGE|GBA B2 G|1 AGG G2 D:|2 AGG GBd||
|:e3 e3|egf edB|ded d2 d|dgB BAG|
c3 dcd|egB A2 D|GBA B2 G|1 AGG GBd:|2 AGG G2 D||
|:GBA ABd|edB A2 D|GBA B2 G|AGG GED|
GBA ABd|edB A2 D|GBA B2 G|1 AGG G2 D:|2 AGG G3||

